Newaita-dark/apps/48/xfce4-battery-plugin.svg

<svg height="48pt" viewBox="0 0 48 48" width="48pt" xmlns="http://www.w3.org/2000/svg" xmlns:xlink="http://www.w3.org/1999/xlink"><linearGradient id="a"><stop offset="0" stop-opacity=".313725"/><stop offset=".222222" stop-opacity=".27451"/><stop offset="1" stop-opacity="0"/></linearGradient><radialGradient id="b" cx="450.908936" cy="189.579361" gradientTransform="matrix(.00000026 -.117199 -.210958 -.00000015 70.257714 95.392996)" gradientUnits="userSpaceOnUse" r="21.166656" xlink:href="#a"/><radialGradient id="c" cx="450.908936" cy="189.579361" gradientTransform="matrix(-.00000026 .117199 .210958 .00000015 -22.628177 -11.291219)" gradientUnits="userSpaceOnUse" r="21.166656" xlink:href="#a"/><radialGradient id="d" cx="450.908936" cy="189.579361" gradientTransform="matrix(-.00000026 -.117199 .210958 -.00000015 -22.628177 95.392996)" gradientUnits="userSpaceOnUse" r="21.166656" xlink:href="#a"/><radialGradient id="e" cx="450.908936" cy="189.579361" gradientTransform="matrix(.00000026 .117199 -.210958 .00000015 70.257711 -11.291222)" gradientUnits="userSpaceOnUse" r="21.166656" xlink:href="#a"/><linearGradient id="f"><stop offset="0" stop-color="#bdbdbd"/><stop offset="1" stop-color="#e0e0e0"/></linearGradient><linearGradient id="g" gradientUnits="userSpaceOnUse" x1="23.814786" x2="23.814786" xlink:href="#f" y1="12.282419" y2="4.3441580001"/><linearGradient id="h" gradientUnits="userSpaceOnUse" x1="23.814786" x2="23.814786" xlink:href="#f" y1="42.0509015" y2="9.30557075"/><linearGradient id="i" gradientUnits="userSpaceOnUse" x1="23.814786" x2="23.814786" y1="42.0509005" y2="12.282418"><stop offset="0" stop-color="#26a69a"/><stop offset="1" stop-color="#4db6ac"/></linearGradient><linearGradient id="j" gradientTransform="matrix(.062506 0 0 .093759 8.269012 20.158179)" gradientUnits="userSpaceOnUse" x1="254" x2="254" y1="233.5" y2="254.666672"><stop offset="0" stop-opacity=".27451"/><stop offset="1" stop-opacity="0"/></linearGradient><path d="m30.761719 42.050781h3.96875v-1.984375h-3.96875zm0 0" fill="url(#b)"/><path d="m16.867188 42.050781h-3.96875v1.984375h3.96875zm0 0" fill="url(#c)"/><path d="m16.867188 42.050781h-3.96875v-1.984375h3.96875zm0 0" fill="url(#d)"/><path d="m30.761719 42.050781h3.96875v1.984375h-3.96875zm0 0" fill="url(#e)"/><path d="m17.859375 4.34375h11.910156c.546875 0 .992188.445312.992188.992188v5.953124c0 .550782-.445313.992188-.992188.992188h-11.910156c-.546875 0-.992187-.441406-.992187-.992188v-5.953124c0-.546876.445312-.992188.992187-.992188zm0 0" fill="url(#g)"/><path d="m17.859375 4.34375c-.546875 0-.992187.441406-.992187.992188v.496093c0-.550781.445312-.992187.992187-.992187h11.910156c.546875 0 .992188.441406.992188.992187v-.496093c0-.550782-.445313-.992188-.992188-.992188zm0 0" fill="#fff" fill-opacity=".392157"/><path d="m17.859375 4.203125c-.625 0-1.132813.507813-1.132813 1.132813v5.953124c0 .625.507813 1.132813 1.132813 1.132813h11.910156c.625 0 1.132813-.507813 1.132813-1.132813v-5.953124c0-.625-.507813-1.132813-1.132813-1.132813zm0 .28125h11.910156c.472657 0 .851563.378906.851563.851563v5.953124c0 .476563-.378906.851563-.851563.851563h-11.910156c-.472656 0-.851563-.375-.851563-.851563v-5.953124c0-.472657.378907-.851563.851563-.851563zm0 0" fill="#212121"/><path d="m14.882812 9.304688h17.863282c1.09375 0 1.984375.890624 1.984375 1.984374v28.777344c0 1.097656-.890625 1.984375-1.984375 1.984375h-17.863282c-1.09375 0-1.984374-.886719-1.984374-1.984375v-28.777344c0-1.09375.890624-1.984374 1.984374-1.984374zm0 0" fill="url(#h)"/><path d="m12.898438 12.28125v27.785156c0 1.097656.886718 1.984375 1.984374 1.984375h17.863282c1.097656 0 1.984375-.886719 1.984375-1.984375v-27.785156zm0 0" fill="url(#i)"/><path d="m16.867188 42.050781h13.894531v1.984375h-13.894531zm0 0" fill="url(#j)"/><path d="m14.882812 9.304688c-1.097656 0-1.984374.886718-1.984374 1.984374v.496094c0-1.097656.886718-1.984375 1.984374-1.984375h17.863282c1.097656 0 1.984375.886719 1.984375 1.984375v-.496094c0-1.097656-.886719-1.984374-1.984375-1.984374zm0 0" fill="#fff" fill-opacity=".392157"/><path d="m14.882812 42.050781c-1.097656 0-1.984374-.886719-1.984374-1.984375v-.496094c0 1.097657.886718 1.984376 1.984374 1.984376h17.863282c1.097656 0 1.984375-.886719 1.984375-1.984376v.496094c0 1.097656-.886719 1.984375-1.984375 1.984375zm0 0" fill-opacity=".235294"/><path d="m14.882812 9.164062c-1.171874 0-2.125.949219-2.125 2.125v28.777344c0 1.175782.953126 2.125 2.125 2.125h17.863282c1.175781 0 2.125-.949218 2.125-2.125v-28.777344c0-1.175781-.949219-2.125-2.125-2.125zm0 .28125h17.863282c1.023437 0 1.84375.820313 1.84375 1.84375v28.777344c0 1.023438-.820313 1.84375-1.84375 1.84375h-17.863282c-1.023437 0-1.84375-.820312-1.84375-1.84375v-28.777344c0-1.023437.820313-1.84375 1.84375-1.84375zm0 0" fill="#212121"/></svg>

<?xml version="1.0" encoding="UTF-8"?>
<svg xmlns="http://www.w3.org/2000/svg" xmlns:xlink="http://www.w3.org/1999/xlink" width="48pt" height="48pt" viewBox="0 0 48 48" version="1.1">
<defs>
<radialGradient id="radial0" gradientUnits="userSpaceOnUse" cx="450.908936" cy="189.579361" fx="450.908936" fy="189.579361" r="21.166656" gradientTransform="matrix(0.000000261256,-0.117199,-0.210958,-0.000000152308,70.257714,95.392996)">
<stop offset="0" style="stop-color:rgb(0%,0%,0%);stop-opacity:0.313725;"/>
<stop offset="0.222222" style="stop-color:rgb(0%,0%,0%);stop-opacity:0.27451;"/>
<stop offset="1" style="stop-color:rgb(0%,0%,0%);stop-opacity:0;"/>
</radialGradient>
<radialGradient id="radial1" gradientUnits="userSpaceOnUse" cx="450.908936" cy="189.579361" fx="450.908936" fy="189.579361" r="21.166656" gradientTransform="matrix(-0.000000261256,0.117199,0.210958,0.000000152308,-22.628177,-11.291219)">
<stop offset="0" style="stop-color:rgb(0%,0%,0%);stop-opacity:0.313725;"/>
<stop offset="0.222222" style="stop-color:rgb(0%,0%,0%);stop-opacity:0.27451;"/>
<stop offset="1" style="stop-color:rgb(0%,0%,0%);stop-opacity:0;"/>
</radialGradient>
<radialGradient id="radial2" gradientUnits="userSpaceOnUse" cx="450.908936" cy="189.579361" fx="450.908936" fy="189.579361" r="21.166656" gradientTransform="matrix(-0.000000261256,-0.117199,0.210958,-0.000000152308,-22.628177,95.392996)">
<stop offset="0" style="stop-color:rgb(0%,0%,0%);stop-opacity:0.313725;"/>
<stop offset="0.222222" style="stop-color:rgb(0%,0%,0%);stop-opacity:0.27451;"/>
<stop offset="1" style="stop-color:rgb(0%,0%,0%);stop-opacity:0;"/>
</radialGradient>
<radialGradient id="radial3" gradientUnits="userSpaceOnUse" cx="450.908936" cy="189.579361" fx="450.908936" fy="189.579361" r="21.166656" gradientTransform="matrix(0.000000261256,0.117199,-0.210958,0.000000152308,70.257711,-11.291222)">
<stop offset="0" style="stop-color:rgb(0%,0%,0%);stop-opacity:0.313725;"/>
<stop offset="0.222222" style="stop-color:rgb(0%,0%,0%);stop-opacity:0.27451;"/>
<stop offset="1" style="stop-color:rgb(0%,0%,0%);stop-opacity:0;"/>
</radialGradient>
<linearGradient id="linear0" gradientUnits="userSpaceOnUse" x1="254" y1="-84" x2="254" y2="-168.666656" gradientTransform="matrix(0.093759,0,0,0.093759,0,20.158175)">
<stop offset="0" style="stop-color:rgb(74.117647%,74.117647%,74.117647%);stop-opacity:1;"/>
<stop offset="1" style="stop-color:rgb(87.843137%,87.843137%,87.843137%);stop-opacity:1;"/>
</linearGradient>
<linearGradient id="linear1" gradientUnits="userSpaceOnUse" x1="254" y1="233.5" x2="254" y2="-115.75" gradientTransform="matrix(0.093759,0,0,0.093759,0,20.158175)">
<stop offset="0" style="stop-color:rgb(74.117647%,74.117647%,74.117647%);stop-opacity:1;"/>
<stop offset="1" style="stop-color:rgb(87.843137%,87.843137%,87.843137%);stop-opacity:1;"/>
</linearGradient>
<linearGradient id="linear2" gradientUnits="userSpaceOnUse" x1="254" y1="233.5" x2="254" y2="-84" gradientTransform="matrix(0.093759,0,0,0.093759,0,20.158174)">
<stop offset="0" style="stop-color:rgb(14.901961%,65.098039%,60.392157%);stop-opacity:1;"/>
<stop offset="1" style="stop-color:rgb(30.196078%,71.372549%,67.45098%);stop-opacity:1;"/>
</linearGradient>
<linearGradient id="linear3" gradientUnits="userSpaceOnUse" x1="254" y1="233.5" x2="254" y2="254.666672" gradientTransform="matrix(0.062506,0,0,0.093759,8.269012,20.158179)">
<stop offset="0" style="stop-color:rgb(0%,0%,0%);stop-opacity:0.27451;"/>
<stop offset="1" style="stop-color:rgb(0%,0%,0%);stop-opacity:0;"/>
</linearGradient>
</defs>
<g id="surface1">
<path style=" stroke:none;fill-rule:nonzero;fill:url(#radial0);" d="M 30.761719 42.050781 L 34.730469 42.050781 L 34.730469 40.066406 L 30.761719 40.066406 Z M 30.761719 42.050781 "/>
<path style=" stroke:none;fill-rule:nonzero;fill:url(#radial1);" d="M 16.867188 42.050781 L 12.898438 42.050781 L 12.898438 44.035156 L 16.867188 44.035156 Z M 16.867188 42.050781 "/>
<path style=" stroke:none;fill-rule:nonzero;fill:url(#radial2);" d="M 16.867188 42.050781 L 12.898438 42.050781 L 12.898438 40.066406 L 16.867188 40.066406 Z M 16.867188 42.050781 "/>
<path style=" stroke:none;fill-rule:nonzero;fill:url(#radial3);" d="M 30.761719 42.050781 L 34.730469 42.050781 L 34.730469 44.035156 L 30.761719 44.035156 Z M 30.761719 42.050781 "/>
<path style=" stroke:none;fill-rule:nonzero;fill:url(#linear0);" d="M 17.859375 4.34375 L 29.769531 4.34375 C 30.316406 4.34375 30.761719 4.789062 30.761719 5.335938 L 30.761719 11.289062 C 30.761719 11.839844 30.316406 12.28125 29.769531 12.28125 L 17.859375 12.28125 C 17.3125 12.28125 16.867188 11.839844 16.867188 11.289062 L 16.867188 5.335938 C 16.867188 4.789062 17.3125 4.34375 17.859375 4.34375 Z M 17.859375 4.34375 "/>
<path style=" stroke:none;fill-rule:nonzero;fill:rgb(100%,100%,100%);fill-opacity:0.392157;" d="M 17.859375 4.34375 C 17.3125 4.34375 16.867188 4.785156 16.867188 5.335938 L 16.867188 5.832031 C 16.867188 5.28125 17.3125 4.839844 17.859375 4.839844 L 29.769531 4.839844 C 30.316406 4.839844 30.761719 5.28125 30.761719 5.832031 L 30.761719 5.335938 C 30.761719 4.785156 30.316406 4.34375 29.769531 4.34375 Z M 17.859375 4.34375 "/>
<path style=" stroke:none;fill-rule:nonzero;fill:rgb(12.941177%,12.941177%,12.941177%);fill-opacity:1;" d="M 17.859375 4.203125 C 17.234375 4.203125 16.726562 4.710938 16.726562 5.335938 L 16.726562 11.289062 C 16.726562 11.914062 17.234375 12.421875 17.859375 12.421875 L 29.769531 12.421875 C 30.394531 12.421875 30.902344 11.914062 30.902344 11.289062 L 30.902344 5.335938 C 30.902344 4.710938 30.394531 4.203125 29.769531 4.203125 Z M 17.859375 4.484375 L 29.769531 4.484375 C 30.242188 4.484375 30.621094 4.863281 30.621094 5.335938 L 30.621094 11.289062 C 30.621094 11.765625 30.242188 12.140625 29.769531 12.140625 L 17.859375 12.140625 C 17.386719 12.140625 17.007812 11.765625 17.007812 11.289062 L 17.007812 5.335938 C 17.007812 4.863281 17.386719 4.484375 17.859375 4.484375 Z M 17.859375 4.484375 "/>
<path style=" stroke:none;fill-rule:nonzero;fill:url(#linear1);" d="M 14.882812 9.304688 L 32.746094 9.304688 C 33.839844 9.304688 34.730469 10.195312 34.730469 11.289062 L 34.730469 40.066406 C 34.730469 41.164062 33.839844 42.050781 32.746094 42.050781 L 14.882812 42.050781 C 13.789062 42.050781 12.898438 41.164062 12.898438 40.066406 L 12.898438 11.289062 C 12.898438 10.195312 13.789062 9.304688 14.882812 9.304688 Z M 14.882812 9.304688 "/>
<path style=" stroke:none;fill-rule:nonzero;fill:url(#linear2);" d="M 12.898438 12.28125 L 12.898438 40.066406 C 12.898438 41.164062 13.785156 42.050781 14.882812 42.050781 L 32.746094 42.050781 C 33.84375 42.050781 34.730469 41.164062 34.730469 40.066406 L 34.730469 12.28125 Z M 12.898438 12.28125 "/>
<path style=" stroke:none;fill-rule:nonzero;fill:url(#linear3);" d="M 16.867188 42.050781 L 30.761719 42.050781 L 30.761719 44.035156 L 16.867188 44.035156 Z M 16.867188 42.050781 "/>
<path style=" stroke:none;fill-rule:nonzero;fill:rgb(100%,100%,100%);fill-opacity:0.392157;" d="M 14.882812 9.304688 C 13.785156 9.304688 12.898438 10.191406 12.898438 11.289062 L 12.898438 11.785156 C 12.898438 10.6875 13.785156 9.800781 14.882812 9.800781 L 32.746094 9.800781 C 33.84375 9.800781 34.730469 10.6875 34.730469 11.785156 L 34.730469 11.289062 C 34.730469 10.191406 33.84375 9.304688 32.746094 9.304688 Z M 14.882812 9.304688 "/>
<path style=" stroke:none;fill-rule:nonzero;fill:rgb(0%,0%,0%);fill-opacity:0.235294;" d="M 14.882812 42.050781 C 13.785156 42.050781 12.898438 41.164062 12.898438 40.066406 L 12.898438 39.570312 C 12.898438 40.667969 13.785156 41.554688 14.882812 41.554688 L 32.746094 41.554688 C 33.84375 41.554688 34.730469 40.667969 34.730469 39.570312 L 34.730469 40.066406 C 34.730469 41.164062 33.84375 42.050781 32.746094 42.050781 Z M 14.882812 42.050781 "/>
<path style=" stroke:none;fill-rule:nonzero;fill:rgb(12.941177%,12.941177%,12.941177%);fill-opacity:1;" d="M 14.882812 9.164062 C 13.710938 9.164062 12.757812 10.113281 12.757812 11.289062 L 12.757812 40.066406 C 12.757812 41.242188 13.710938 42.191406 14.882812 42.191406 L 32.746094 42.191406 C 33.921875 42.191406 34.871094 41.242188 34.871094 40.066406 L 34.871094 11.289062 C 34.871094 10.113281 33.921875 9.164062 32.746094 9.164062 Z M 14.882812 9.445312 L 32.746094 9.445312 C 33.769531 9.445312 34.589844 10.265625 34.589844 11.289062 L 34.589844 40.066406 C 34.589844 41.089844 33.769531 41.910156 32.746094 41.910156 L 14.882812 41.910156 C 13.859375 41.910156 13.039062 41.089844 13.039062 40.066406 L 13.039062 11.289062 C 13.039062 10.265625 13.859375 9.445312 14.882812 9.445312 Z M 14.882812 9.445312 "/>
</g>
</svg>
